resources/svg/print.svg

<svg xmlns="http://www.w3.org/2000/svg" viewBox="0 0 15 15" fill="currentColor"><path d="M3 1.5C3 0.671573 3.67157 0 4.5 0H10.5C11.3284 0 12 0.671573 12 1.5V5H3V1.5Z" fill="black"/><path d="M1.5 6C0.671573 6 0 6.67157 0 7.5V11.5C0 12.3284 0.671573 13 1.5 13H2V9H13V13H13.5C14.3284 13 15 12.3284 15 11.5V7.5C15 6.67157 14.3284 6 13.5 6H1.5Z" fill="black"/><path d="M3 10H12V15H3V10Z" fill="black"/></svg>

<svg xmlns="http://www.w3.org/2000/svg" viewBox="0 0 15 15" fill="currentColor"><path d="M3 1.5A1.5 1.5 0 014.5 0h6A1.5 1.5 0 0112 1.5V5H3V1.5zM1.5 6A1.5 1.5 0 000 7.5v4A1.5 1.5 0 001.5 13H2V9h11v4h.5a1.5 1.5 0 001.5-1.5v-4A1.5 1.5 0 0013.5 6h-12z" fill="currentColor"/><path d="M3 10h9v5H3v-5z" fill="currentColor"/></svg>
